X: 44
T: Sonata in G major, L.335, K.55
C: Domenico Scarlatti
%%abc-version 2.0
%%abcx-abcm2ps-target-version 5.9.1 (29 Sep 2008)
%%abc-creator hum2abc beta
%%abcx-conversion-date 2021/06/28 10:15:40
%%abc-copyright 2021 Craig Stuart Sapp
%%abc-edited-by Craig Stuart Sapp
%%abc-edited-by Craig Stuart Sapp
%%abcx-initial-encoding-date 2004/10/29
%%humdrum-veritas 1266734357
%%humdrum-veritas-data 2158751837
%%linebreak <none>
%%barnumbers 0
L: 1/16
M: 3/8
N: Derived from L335K055.krn
Q: "Allegro ([quarter-dot]=88)" 3/8=88
%%staves {1 2}
V: 1 clef=treble
V: 2 clef=bass
K: G
[V:1] g2d2B2 | 
[V:2] G6 | 
[V:1] g2e2c2 | 
[V:2] G6 | 
[V:1] g2d2B2 | 
[V:2] G6 | 
[V:1] agfedc | 
[V:2] F6 | 
[V:1] B6 | 
[V:2] GFEDCB, | 
[V:1] AcBAGF | 
[V:2] .C2.D2.C2 | 
[V:1] d6 | 
[V:2] B,A,G,F,E,D, | 
[V:1] AcBAGF | 
[V:2] .C,2.D,2.C,2 | 
[V:1] d6 | 
[V:2] B,,A,,G,,F,,E,,D,, | 
[V:1] AcBAGF | 
[V:2] .C,,2.D,,2.D,,2 | 
[V:1] {/F/}G6 | 
[V:2] G,,6 | 
[V:1] !accent!d4.d2 & B2D2.B2 | 
[V:2] z4.B,2 | 
[V:1] !mordent!c4B2 & !mordent!A4G2 | 
[V:2] A,2D,2G,2 | 
[V:1] !accent!b4.b2 & g2B2.g2 | 
[V:2] z4.G,2 | 
[V:1] !mordent!a4b2 & !mordent!f4g2 | 
[V:2] D2D,2.G,,2 | 
[V:1] !accent!d4.d2 & B2D2.B2 | 
[V:2] z4.B,2 | 
[V:1] !mordent!c4B2 & !mordent!A4G2 | 
[V:2] A,2D,2G,2 | 
[V:1] !accent!b4.b2 & g2B2.g2 | 
[V:2] z4.G,2 | 
[V:1] !mordent!a4b2 & !mordent!f4g2 | 
[V:2] D2D,2.G,,2 | 
[V:1] z bB^cde | 
[V:2] G6 | 
[V:1] =f^gagga | 
[V:2] =F6 | 
[V:1] z aAB^cd | 
[V:2] =F6 | 
[V:1] e^fgffg | 
[V:2] E6 | 
[V:1] z g^cdG_B | 
[V:2] [E4G4]D2 | 
[V:1] Ag=fead | 
[V:2] ^C4D2 | 
[V:1] z g^cdG_B | 
[V:2] [E4G4]D2 | 
[V:1] Ag=fead | 
[V:2] ^C4D2 | 
[V:1] z g^cdG_B | 
[V:2] [E4G4]D2 | 
[V:1] Ag=fefg | 
[V:2] ^C4[D2=F2] | 
[V:1] !mordent!e6- | 
[V:2] G,_B,A,D^CG | 
[V:1] ede=f^ga | 
[V:2] =F6 | 
[V:1] !mordent!e6- | 
[V:2] G,_B,A,D^CG | 
[V:1] ede=f^ga | 
[V:2] =F6 | 
[V:1] !mordent!e6- | 
[V:2] G,_B,A,D^CG | 
[V:1] ea^fed^c | 
[V:2] F6 | 
[V:1] Bbgfed | 
[V:2] G6 | 
[V:1] ^cBAGFE | 
[V:2] .A2.A,2.^C2 | 
[V:1] FAdFE^c | 
[V:2] D2G,2.A,2 | 
[V:1] dAFDFd | 
[V:2] D,,2D,2.A,2 | 
[V:1] e^cAEGc | 
[V:2] A,,,2A,,2.A,2 | 
[V:1] dAFDFd | 
[V:2] D,,2D,2.A,2 | 
[V:1] e^cAEGc | 
[V:2] A,,,2A,,2.A,2 | 
[V:1] dAFDFd | 
[V:2] D,,2D,2.A,2 | 
[V:1] e^cAEGc | 
[V:2] A,,,2A,,2.A,2 | 
[V:1] d6 & FEFGAG | 
[V:2] D,2E,2F,2 | 
[V:1] ABAGFE | 
[V:2] G,2.A,2.A,,2 | 
[V:1] fdAfaf | 
[V:2] D,,2D,2.A,2 | 
[V:1] geAege | 
[V:2] A,,,2A,,2.A,2 | 
[V:1] fdAfaf | 
[V:2] D,,2D,2.A,2 | 
[V:1] geAege | 
[V:2] A,,,2A,,2.A,2 | 
[V:1] fdAfaf | 
[V:2] D,,2D,2.A,2 | 
[V:1] geAege | 
[V:2] A,,,2A,,2.A,2 | 
[V:1] fefgag | 
[V:2] D,2E,2F,2 | 
[V:1] abagfe | 
[V:2] G,2.A,2.A,,2 | 
[V:1] dafed^c | 
[V:2] D,2E,2F,2 | 
[V:1] Bgfed^c | 
[V:2] G,2.A,2.A,,2 | 
[V:1] dAFED^C | 
[V:2] D,2E,2F,2 | 
[V:1] B,GFED^C | 
[V:2] G,2.A,2.A,,2 | 
[V:1] !accent!D6 :|]|:  
[V:2] !accent!D,,6 :|]|:  
[V:1] d2A2F2 | 
[V:2] D6 | 
[V:1] d2B2G2 | 
[V:2] D6 | 
[V:1] d2A2Fe | 
[V:2] D6 | 
[V:1] ^d2A2.e2 | 
[V:2] =C6 | 
[V:1] f=cBAGF | 
[V:2] B,2B,,2.^D2 | 
[V:1] bgfe^de | 
[V:2] E2G,2A,2 | 
[V:1] fcBAGF | 
[V:2] B,2B,,2.^D2 | 
[V:1] bgfe=de | 
[V:2] E2G,2A,2 | 
[V:1] fcBAGF | 
[V:2] B,2B,,2.^D2 | 
[V:1] ba^g=fed | 
[V:2] E2E,2^G,2 | 
[V:1] ^c_BAG=FE | 
[V:2] A,2A,,2.^C2 | 
[V:1] a=fed^cd | 
[V:2] D2=F,2G,2 | 
[V:1] e_BAG=FE | 
[V:2] A,2A,,2.^C2 | 
[V:1] a=fed^cd | 
[V:2] D2=F,2G,2 | 
[V:1] e_BAG=FE | 
[V:2] A,2A,,2.^C2 | 
[V:1] ^FGA_Bcd | 
[V:2] D6 | 
[V:1] !mordent!_e6 | 
[V:2] =C_EA,C^F,A, | 
[V:1] ^FGA_Bcd | 
[V:2] D,6 | 
[V:1] !mordent!_e6 | 
[V:2] C_EA,CF,A, | 
[V:1] =Bcd_e=fg | 
[V:2] D,6 | 
[V:1] !mordent!=f6 | 
[V:2] D=FB,D=F,_A, | 
[V:1] Bcd_e=fg | 
[V:2] D,6 | 
[V:1] !mordent!=f6 | 
[V:2] D=FB,D=F,_A, | 
[V:1] =Bcd_e=fg | 
[V:2] D,6 | 
[V:1] =f_agf_ed | 
[V:2] [G,,6G,6] | 
[V:1] g=f_ed=c_B | 
[V:2] C,2C2.^C2 | 
[V:1] A^fg_BAB | 
[V:2] D,2D2.^C2 | 
[V:1] Afg_BAB | 
[V:2] D,2D2.^C2 | 
[V:1] .A2.=c2.d2 | 
[V:2] DGFGFG | 
[V:1] _e2c2.g2 | 
[V:2] .CGFGFG | 
[V:1] f2a2._b2 | 
[V:2] .DGFGFG | 
[V:1] c'2a2.g2 | 
[V:2] ._EGFGFG | 
[V:1] f2c2.d2 | 
[V:2] .DGFGFG | 
[V:1] _e2c2.g2 | 
[V:2] .CGFGFG | 
[V:1] f2a2._b2 | 
[V:2] .DGFGFG | 
[V:1] c'2a2.g2 | 
[V:2] ._EGFGFG | 
[V:1] f_edc_BA | 
[V:2] .D2.D,2F2 | 
[V:1] _BdcBAG | 
[V:2] .G2.G,2._B,2 | 
[V:1] z cFGC_E | 
[V:2] [A,4C4]G,2 | 
[V:1] Dc_BAdG | 
[V:2] [F,4C4]G,2 | 
[V:1] z cFGC_E | 
[V:2] [A,4C4]G,2 | 
[V:1] Dc_BAdG | 
[V:2] [F,4C4]G,2 | 
[V:1] z cFGC_E | 
[V:2] [A,4C4]G,2 | 
[V:1] Dc_BABc | 
[V:2] [F,4C4]G,2 | 
[V:1] !mordent!A6- | 
[V:2] C,_E,D,G,F,C | 
[V:1] AGA_B^cd | 
[V:2] _B,6 | 
[V:1] !mordent!A6- | 
[V:2] C,_E,D,G,F,C | 
[V:1] AGA_B^cd | 
[V:2] _B,6 | 
[V:1] !mordent!A6- | 
[V:2] C,_E,D,G,F,C | 
[V:1] Ad=BAGF | 
[V:2] =B,6 | 
[V:1] EecBAg | 
[V:2] C6 | 
[V:1] fedcBA | 
[V:2] .D2.D,2.F,2 | 
[V:1] BcdcBA | 
[V:2] G,2C,2.D,2 | 
[V:1] gdBGBg | 
[V:2] G,,2G,2.D2 | 
[V:1] afdAcf | 
[V:2] D,,2D,2.D2 | 
[V:1] gdBGBg | 
[V:2] G,,2G,2.D2 | 
[V:1] afdAcf | 
[V:2] D,,2D,2.B,2 | 
[V:1] gdBGBg | 
[V:2] G,,2G,2.D2 | 
[V:1] afdAcf | 
[V:2] D,,2D,2.D2 | 
[V:1] g6 & BABcdc | 
[V:2] G,,2A,,2B,,2 | 
[V:1] dedcBA | 
[V:2] C,2.D,2.D,,2 | 
[V:1] bgdBdb | 
[V:2] G,,2G,2.D2 | 
[V:1] c'afdfc' | 
[V:2] D,,2D,2.D2 | 
[V:1] bgdBdb | 
[V:2] G,,2G,2D2 | 
[V:1] c'afdfc' | 
[V:2] D,,2D,2.D2 | 
[V:1] bgdBdb | 
[V:2] G,,2G,2.D2 | 
[V:1] c'afdfc' | 
[V:2] D,,2D,2.D2 | 
[V:1] bagfgd | 
[V:2] G,,2A,,2B,,2 | 
[V:1] ecBAGF | 
[V:2] C,2.D,2D,,2 | 
[V:1] GdBAGF | 
[V:2] G,,2A,,2B,,2 | 
[V:1] EcBAGF | 
[V:2] C,2.D,2.D,,2 | 
[V:1] GD[K:clef=bass] B,A,G,F, | 
[V:2] G,,2A,,2B,,2 | 
[V:1] E,CB,A,G,F, | 
[V:2] C,2.D,2.D,,2 | 
[V:1] !accent!G,6 :|]  
[V:2] !accent!G,,6 :|]  


